public/woman2.svg

<svg width="140" height="140" viewBox="0 0 140 140" fill="none" xmlns="http://www.w3.org/2000/svg">
<path d="M33.1776 68C35.3506 60.1976 36.1776 42.5 33.1776 35.5L36.6779 33C46.6779 48.5 80.5579 90.3237 73.4999 91.5C64.4995 93 42.678 93 33.1779 89C23.6779 85 29 83 33.1776 68Z" fill="#DB7543"/>
<path fill-rule="evenodd" clip-rule="evenodd" d="M96 60H92.6999C85.6999 68.6667 72.1999 88.6 74.1999 91C76.6999 94 90.6999 93 102.2 92C113.7 91 117.2 89.5 111.2 80C108.159 75.1853 106.697 70.384 106.076 66.2826L105.686 60.5597C105.689 60.3693 105.694 60.1827 105.7 60H105.648L103.5 28.5L96 33.5V60Z" fill="#DB7543"/>
<path d="M7 120.5C4.2 121.7 1.16667 133.667 0 139.5H139C141 133.9 135.5 124.5 132.5 120.5L86.5 101H52.5C38.8333 107 9.8 119.3 7 120.5Z" fill="#140019"/>
<path d="M86.5 101C84.1 98.6 83.3333 88 83.5 84L56 82C56.8 88.8 55 98 52.5 101C73.7 115 84 107.667 86.5 101Z" fill="#F3B29B"/>
<path d="M55.5 93C56.5 87.5 56 84.5 56 82H83V85.5C78.5 93 63.6667 93.5 55.5 93Z" fill="#3B2140"/>
<path fill-rule="evenodd" clip-rule="evenodd" d="M70.5 12C54.7971 12 42.3616 25.2692 43.3792 40.9391L43.575 43.9554L42.5005 43.0002C37.1672 40.0002 27.4005 37.7002 31.0005 52.5002C33.4729 62.6646 39.7028 66.0211 45.0905 66.5867C46.6806 79.3096 57.5185 89 70.5 89C83.4815 89 94.3194 79.3096 95.9095 66.5867C101.297 66.0211 107.527 62.6646 110 52.5002C113.6 37.7002 103.833 40.0002 98.4995 43.0002L97.425 43.9554L97.6208 40.9391C98.6384 25.2691 86.2029 12 70.5 12Z" fill="#F3B29B"/>
<path fill-rule="evenodd" clip-rule="evenodd" d="M102.719 48.3496C103.754 47.2211 104.925 46.2025 105.693 45.6053L106.307 46.3947C105.575 46.9642 104.446 47.9455 103.456 49.0254C102.961 49.5651 102.508 50.1215 102.157 50.6569C101.962 50.955 101.804 51.2376 101.688 51.5H104.5V52.5H100.39L100.51 51.9019C100.628 51.3121 100.935 50.698 101.321 50.1088C101.711 49.5139 102.201 48.914 102.719 48.3496Z" fill="#E99486"/>
<path fill-rule="evenodd" clip-rule="evenodd" d="M37.0972 48.6962C36.2822 47.5878 35.2998 46.5069 34.6464 45.8536L35.3536 45.1464C36.0335 45.8264 37.0511 46.9455 37.9028 48.1038C38.3285 48.6827 38.7206 49.282 39.0083 49.8486C39.2897 50.4028 39.5 50.9802 39.5 51.5V51.9236L36.0822 52.4932L35.9178 51.5068L38.4353 51.0872C38.3741 50.8643 38.2689 50.6011 38.1167 50.3014C37.8628 49.8013 37.5049 49.2506 37.0972 48.6962Z" fill="#E99486"/>
<path fill-rule="evenodd" clip-rule="evenodd" d="M71.3602 78.0598C69.8955 77.9058 68.5562 77.381 67.7572 76.9371L68.2428 76.0629C68.9438 76.4523 70.1545 76.9275 71.4648 77.0652C72.7736 77.2028 74.12 76.9992 75.1799 76.1159L75.8201 76.8841C74.48 78.0008 72.8264 78.2139 71.3602 78.0598Z" fill="#EA9283"/>
<path fill-rule="evenodd" clip-rule="evenodd" d="M71.7138 73.225C68.3545 73.2335 64.9401 72.3146 62.8143 71.4642L63.1857 70.5358C65.2266 71.3521 68.5122 72.2331 71.7112 72.225C74.9191 72.2168 77.914 71.3203 79.5794 68.7296L80.4206 69.2704C78.486 72.2797 75.0642 73.2165 71.7138 73.225Z" fill="#EA9283"/>
<path fill-rule="evenodd" clip-rule="evenodd" d="M68.9398 59.2036C69.1691 56.7437 69.4178 53.8807 69.5005 51.9783L70.4995 52.0217C70.4156 53.9526 70.1645 56.8396 69.9355 59.2964C69.8562 60.1468 69.7794 60.9481 69.7129 61.6418C69.6832 61.9511 69.6556 62.2391 69.6308 62.5005C69.5904 62.9249 69.5573 63.2787 69.5344 63.5415C69.5229 63.6731 69.5141 63.7802 69.5081 63.8613C69.5052 63.9019 69.5031 63.9345 69.5017 63.9596L69.5008 63.9788C69.5049 63.9883 69.5136 64.0059 69.5305 64.0317C69.5712 64.094 69.6427 64.1765 69.75 64.2662C69.9642 64.4451 70.2849 64.6223 70.6785 64.7164C71.4391 64.8982 72.5134 64.7794 73.6464 63.6464L74.3536 64.3536C72.9866 65.7206 71.5606 65.9554 70.446 65.689C69.9021 65.5589 69.4415 65.3115 69.1088 65.0336C68.9428 64.8948 68.7994 64.7408 68.6938 64.5794C68.5938 64.4266 68.4998 64.2246 68.5 63.9996C68.5001 63.8436 68.5565 63.2334 68.6352 62.4058C68.6602 62.1431 68.6879 61.8544 68.7176 61.5445C68.7841 60.8514 68.8607 60.0527 68.9398 59.2036Z" fill="#EA9283"/>
<path d="M61.5 49C61.5 51.2091 60.6046 53 59.5 53C58.3954 53 57.5 51.2091 57.5 49C57.5 46.7909 58.3954 45 59.5 45C60.6046 45 61.5 46.7909 61.5 49Z" fill="#3F232F"/>
<path d="M84.5 49C84.5 51.2091 83.6046 53 82.5 53C81.3954 53 80.5 51.2091 80.5 49C80.5 46.7909 81.3954 45 82.5 45C83.6046 45 84.5 46.7909 84.5 49Z" fill="#3F232F"/>
<path d="M86 37.8811C82.4 35.4811 78.8333 38.5478 77.5 40.3811C78 40.8809 80.7 39.8809 83.5 39.8809C87 39.8809 91.5 44.3809 91.5 43.3809C91.5 42.3809 90.5 40.8811 86 37.8811Z" fill="#DB7543"/>
<path d="M57.5 37.8811C61.1 35.4811 64.6667 38.5478 66 40.3811C65.5 40.8809 62.8 39.8809 60 39.8809C56.5 39.8809 52 44.3809 52 43.3809C52 42.3809 53 40.8811 57.5 37.8811Z" fill="#DB7543"/>
<path d="M72 119C72 120.105 71.1046 121 70 121C68.8954 121 68 120.105 68 119C68 117.895 68.8954 117 70 117C71.1046 117 72 117.895 72 119Z" fill="#D9D9D9"/>
<path d="M72 127C72 128.105 71.1046 129 70 129C68.8954 129 68 128.105 68 127C68 125.895 68.8954 125 70 125C71.1046 125 72 125.895 72 127Z" fill="#D9D9D9"/>
<path d="M72 135C72 136.105 71.1046 137 70 137C68.8954 137 68 136.105 68 135C68 133.895 68.8954 133 70 133C71.1046 133 72 133.895 72 135Z" fill="#D9D9D9"/>
<path d="M71.5 105.5C70.3 105.1 69 105.333 68.5 105.5L65 108.5L70 112L75 110C74.3333 108.667 72.7 105.9 71.5 105.5Z" fill="#140019"/>
<path fill-rule="evenodd" clip-rule="evenodd" d="M97.9011 46.1833C101.5 42.1918 106.507 32.3537 101.5 21C96.493 9.64629 87.2244 5.82445 83.5427 5.82445C82.9291 4.05043 80.7447 0.857203 76.9158 2.27642C74.1866 3.28803 72.4151 2.42476 70.509 1.49592C69.0726 0.795901 67.5596 0.058645 65.5028 0.058645C65.126 0.058645 64.6807 0.0476492 64.1758 0.0351801C58.2673 -0.11073 44.19 -0.458367 36.0498 14.2508C35.5647 15.1272 35.1296 16.0023 34.7411 16.8741C30.7707 24.4332 27.561 33.4666 28.0122 42.5C28.2434 47.1304 29.8721 51.9753 31.3559 56.3892C33.0765 61.5077 34.6024 66.0467 33.5285 69C31.9285 73.4 40.5284 69.8333 45.0284 67.5C44.9795 66.0794 44.7001 64.5004 44.4062 62.8392C43.7002 58.8485 42.9102 54.3834 45.0284 50.5C45.0598 50.4425 45.0854 50.3631 45.1053 50.263C45.7488 49.2456 46.3307 47.1813 47 43.5C47.9405 38.3272 50.9676 37.5701 54.0778 36.7923C56.7395 36.1266 59.4622 35.4457 60.9902 31.9689C62.5961 28.3147 64.543 26.2206 65.8557 24.8087C66.7097 23.8901 67.2952 23.2603 67.3436 22.6776C69.5526 24.156 74.9277 26.5805 78.7566 24.4516C83.5427 21.7906 89.8015 20.9036 92.3786 27.1127C94.5551 32.3565 95.1561 37.6003 95.5121 40.7069C95.5776 41.2787 95.6348 41.7781 95.6921 42.1918C96.0602 44.8528 96.7966 46.1833 97.9011 46.1833Z" fill="#DB7543"/>
<path d="M89.3063 113.648C81.8926 120.486 73.3463 110.799 69.9998 105.101C79.8847 106.344 83.4153 98.885 84.445 95C88.9998 95.5 98.5735 105.101 89.3063 113.648Z" fill="#EFE6E0"/>
<path d="M50.6932 113.648C58.107 120.486 66.6533 110.799 69.9998 105.101C60.1148 106.344 56.0295 98.885 54.9998 95C52.683 96.554 41.4261 105.101 50.6932 113.648Z" fill="#EFE6E0"/>
</svg>

<?xml version="1.0" encoding="UTF-8"?>
<svg id="Layer_1" data-name="Layer 1" xmlns="http://www.w3.org/2000/svg" viewBox="0 0 139.43 139.5">
  <defs>
    <style>
      .cls-1, .cls-2 {
        fill: #f3b29b;
      }

      .cls-3 {
        fill: #efe6e0;
      }

      .cls-4, .cls-5 {
        fill: #db7543;
      }

      .cls-6 {
        fill: #d9d9d9;
      }

      .cls-7 {
        fill: #140019;
      }

      .cls-8 {
        fill: #3f232f;
      }

      .cls-9 {
        fill: #3b2140;
      }

      .cls-2, .cls-5, .cls-10, .cls-11 {
        fill-rule: evenodd;
      }

      .cls-10 {
        fill: #ea9283;
      }

      .cls-11 {
        fill: #e99486;
      }
    </style>
  </defs>
  <path class="cls-4" d="M33.18,68c2.17-7.8,3-25.5,0-32.5l3.5-2.5c10,15.5,43.88,57.32,36.82,58.5-9,1.5-30.82,1.5-40.32-2.5-9.5-4-4.18-6,0-21Z"/>
  <path class="cls-5" d="M96,60h-3.3c-7,8.67-20.5,28.6-18.5,31,2.5,3,16.5,2,28,1,11.5-1,15-2.5,9-12-3.04-4.81-4.5-9.62-5.12-13.72l-.39-5.72c0-.19,0-.38,.01-.56h-.05l-2.15-31.5-7.5,5v26.5Z"/>
  <path class="cls-7" d="M7,120.5c-2.8,1.2-5.83,13.17-7,19H139c2-5.6-3.5-15-6.5-19l-46-19.5H52.5c-13.67,6-42.7,18.3-45.5,19.5Z"/>
  <path class="cls-1" d="M86.5,101c-2.4-2.4-3.17-13-3-17l-27.5-2c.8,6.8-1,16-3.5,19,21.2,14,31.5,6.67,34,0Z"/>
  <path class="cls-9" d="M55.5,93c1-5.5,.5-8.5,.5-11h27v3.5c-4.5,7.5-19.33,8-27.5,7.5Z"/>
  <path class="cls-2" d="M70.5,12c-15.7,0-28.14,13.27-27.12,28.94l.2,3.02-1.07-.96c-5.33-3-15.1-5.3-11.5,9.5,2.47,10.16,8.7,13.52,14.09,14.09,1.59,12.72,12.43,22.41,25.41,22.41s23.82-9.69,25.41-22.41c5.39-.57,11.62-3.92,14.09-14.09,3.6-14.8-6.17-12.5-11.5-9.5l-1.07,.96,.2-3.02c1.02-15.67-11.42-28.94-27.12-28.94Z"/>
  <path class="cls-11" d="M102.72,48.35c1.03-1.13,2.21-2.15,2.97-2.74l.61,.79c-.73,.57-1.86,1.55-2.85,2.63-.5,.54-.95,1.1-1.3,1.63-.19,.3-.35,.58-.47,.84h2.81v1h-4.11l.12-.6c.12-.59,.42-1.2,.81-1.79,.39-.59,.88-1.19,1.4-1.76Z"/>
  <path class="cls-11" d="M37.1,48.7c-.81-1.11-1.8-2.19-2.45-2.84l.71-.71c.68,.68,1.7,1.8,2.55,2.96,.43,.58,.82,1.18,1.11,1.74,.28,.55,.49,1.13,.49,1.65v.42l-3.42,.57-.16-.99,2.52-.42c-.06-.22-.17-.49-.32-.79-.25-.5-.61-1.05-1.02-1.61Z"/>
  <path class="cls-10" d="M71.36,78.06c-1.46-.15-2.8-.68-3.6-1.12l.49-.87c.7,.39,1.91,.86,3.22,1,1.31,.14,2.66-.07,3.72-.95l.64,.77c-1.34,1.12-2.99,1.33-4.46,1.18Z"/>
  <path class="cls-10" d="M71.71,73.22c-3.36,0-6.77-.91-8.9-1.76l.37-.93c2.04,.82,5.33,1.7,8.53,1.69,3.21,0,6.2-.9,7.87-3.5l.84,.54c-1.93,3.01-5.36,3.95-8.71,3.95Z"/>
  <path class="cls-10" d="M68.94,59.2c.23-2.46,.48-5.32,.56-7.23l1,.04c-.08,1.93-.33,4.82-.56,7.27-.08,.85-.16,1.65-.22,2.35-.03,.31-.06,.6-.08,.86-.04,.42-.07,.78-.1,1.04-.01,.13-.02,.24-.03,.32,0,.04,0,.07,0,.1v.02s.01,.03,.03,.05c.04,.06,.11,.14,.22,.23,.21,.18,.53,.36,.93,.45,.76,.18,1.83,.06,2.97-1.07l.71,.71c-1.37,1.37-2.79,1.6-3.91,1.34-.54-.13-1-.38-1.34-.66-.17-.14-.31-.29-.42-.45-.1-.15-.19-.35-.19-.58,0-.16,.06-.77,.14-1.59,.03-.26,.05-.55,.08-.86,.07-.69,.14-1.49,.22-2.34Z"/>
  <path class="cls-8" d="M61.5,49c0,2.21-.9,4-2,4s-2-1.79-2-4,.9-4,2-4,2,1.79,2,4Z"/>
  <path class="cls-8" d="M84.5,49c0,2.21-.9,4-2,4s-2-1.79-2-4,.9-4,2-4,2,1.79,2,4Z"/>
  <path class="cls-4" d="M86,37.88c-3.6-2.4-7.17,.67-8.5,2.5,.5,.5,3.2-.5,6-.5,3.5,0,8,4.5,8,3.5s-1-2.5-5.5-5.5Z"/>
  <path class="cls-4" d="M57.5,37.88c3.6-2.4,7.17,.67,8.5,2.5-.5,.5-3.2-.5-6-.5-3.5,0-8,4.5-8,3.5s1-2.5,5.5-5.5Z"/>
  <path class="cls-6" d="M72,119c0,1.11-.9,2-2,2s-2-.89-2-2,.9-2,2-2,2,.89,2,2Z"/>
  <path class="cls-6" d="M72,127c0,1.1-.9,2-2,2s-2-.9-2-2,.9-2,2-2,2,.89,2,2Z"/>
  <path class="cls-6" d="M72,135c0,1.1-.9,2-2,2s-2-.9-2-2,.9-2,2-2,2,.9,2,2Z"/>
  <path class="cls-7" d="M71.5,105.5c-1.2-.4-2.5-.17-3,0l-3.5,3,5,3.5,5-2c-.67-1.33-2.3-4.1-3.5-4.5Z"/>
  <path class="cls-5" d="M97.9,46.18c3.6-3.99,8.61-13.83,3.6-25.18-5.01-11.35-14.28-15.18-17.96-15.18-.61-1.77-2.8-4.97-6.63-3.55-2.73,1.01-4.5,.15-6.41-.78-1.44-.7-2.95-1.44-5.01-1.44-.38,0-.82-.01-1.33-.02-5.91-.15-19.99-.49-28.13,14.22-.49,.88-.92,1.75-1.31,2.62-3.97,7.56-7.18,16.59-6.73,25.63,.23,4.63,1.86,9.48,3.34,13.89,1.72,5.12,3.25,9.66,2.17,12.61-1.6,4.4,7,.83,11.5-1.5-.05-1.42-.33-3-.62-4.66-.71-3.99-1.5-8.46,.62-12.34,.03-.06,.06-.14,.08-.24,.64-1.02,1.23-3.08,1.89-6.76,.94-5.17,3.97-5.93,7.08-6.71,2.66-.67,5.38-1.35,6.91-4.82,1.61-3.65,3.55-5.75,4.87-7.16,.85-.92,1.44-1.55,1.49-2.13,2.21,1.48,7.58,3.9,11.41,1.77,4.79-2.66,11.04-3.55,13.62,2.66,2.18,5.24,2.78,10.49,3.13,13.59,.07,.57,.12,1.07,.18,1.48,.37,2.66,1.1,3.99,2.21,3.99Z"/>
  <path class="cls-3" d="M89.31,113.65c-7.41,6.84-15.96-2.85-19.31-8.55,9.88,1.24,13.42-6.22,14.45-10.1,4.55,.5,14.13,10.1,4.86,18.65Z"/>
  <path class="cls-3" d="M50.69,113.65c7.41,6.84,15.96-2.85,19.31-8.55-9.89,1.24-13.97-6.22-15-10.1-2.32,1.55-13.57,10.1-4.31,18.65Z"/>
</svg>
